icons/24x24_building_outline.svg

<svg xmlns="http://www.w3.org/2000/svg" width="24" height="24" viewBox="0 0 24 24">
  <path fill-rule="evenodd" d="M12,20 L12,6 L6,6 L6,12 L8,12 C9.1045695,12 10,12.8954305 10,14 L10,20 L8,20 L8,14 L4,14 L4,20 L2,20 L2,14 C2,12.8954305 2.8954305,12 4,12 L4,6 C4,4.8954305 4.8954305,4 6,4 L12,4 C13.1045695,4 14,4.8954305 14,6 L14,9 L16,9 L16,7 C16,6.44771525 16.4477153,6 17,6 C17.5522847,6 18,6.44771525 18,7 L18,9 L20,9 C21.1045695,9 22,9.8954305 22,11 L22,20 L20,20 L20,11 L14,11 L14,20 L12,20 Z"/>
</svg>

<svg width="24" height="24" fill="none" xmlns="http://www.w3.org/2000/svg"><path fill-rule="evenodd" clip-rule="evenodd" d="M12 20V6H6v6h2a2 2 0 0 1 2 2v6H8v-6H4v6H2v-6a2 2 0 0 1 2-2V6a2 2 0 0 1 2-2h6a2 2 0 0 1 2 2v3h2V7a1 1 0 1 1 2 0v2h2a2 2 0 0 1 2 2v9h-2v-9h-6v9h-2Z" fill="#000"/></svg>
